X:14
T:Peuple de Dieu, marche joyeux - K180
C:C.Villeneuve
M:C|
L:1/8
K:D
D2EF|G4 E2FG|A4 B2BB|A2F2 G2E2|F4 D2EF|G4 E2FG|
A4 B2BB|A2F2 G2E2|D4 F2FF|B,2C2D2E2|C2C2 A,2A,A,|
D2D2E2E2|F4 B2BB|E2F2 G2A2|F2F2 D2DD|G2G2 F2F2|E4||
